src/images/history.svg

<?xml version="1.0" encoding="iso-8859-1"?>
<!-- Generator: Adobe Illustrator 16.0.0, SVG Export Plug-In . SVG Version: 6.00 Build 0)  -->
<!DOCTYPE svg PUBLIC "-//W3C//DTD SVG 1.1//EN" "http://www.w3.org/Graphics/SVG/1.1/DTD/svg11.dtd">
<svg version="1.1" id="Capa_1" xmlns="http://www.w3.org/2000/svg" xmlns:xlink="http://www.w3.org/1999/xlink" x="0px" y="0px"
	 width="510px" height="510px" viewBox="0 0 510 510" style="enable-background:new 0 0 510 510;" xml:space="preserve">
<g>
	<g id="history">
		<path style="opacity:0.9;enable-background:new    ;" d="M267.75,12.75c-89.25,0-168.3,48.45-209.1,122.4L0,76.5v165.75h165.75
			l-71.4-71.4c33.15-63.75,96.9-107.1,173.4-107.1C372.3,63.75,459,150.45,459,255s-86.7,191.25-191.25,191.25
			c-84.15,0-153-53.55-181.05-127.5H33.15c28.05,102,122.4,178.5,234.6,178.5C402.9,497.25,510,387.6,510,255
			C510,122.4,400.35,12.75,267.75,12.75z M229.5,140.25V270.3l119.85,71.4l20.4-33.15l-102-61.2v-107.1H229.5z"/>
	</g>
</g>
<g>
</g>
<g>
</g>
<g>
</g>
<g>
</g>
<g>
</g>
<g>
</g>
<g>
</g>
<g>
</g>
<g>
</g>
<g>
</g>
<g>
</g>
<g>
</g>
<g>
</g>
<g>
</g>
<g>
</g>
</svg>

<svg width="510" height="510" viewBox="0 0 510 510" fill="none" xmlns="http://www.w3.org/2000/svg">
<path opacity="0.9" d="M267.75 12.75C178.5 12.75 99.45 61.2 58.65 135.15L0 76.5V242.25H165.75L94.35 170.85C127.5 107.1 191.25 63.75 267.75 63.75C372.3 63.75 459 150.45 459 255C459 359.55 372.3 446.25 267.75 446.25C183.6 446.25 114.75 392.7 86.7 318.75H33.15C61.2 420.75 155.55 497.25 267.75 497.25C402.9 497.25 510 387.6 510 255C510 122.4 400.35 12.75 267.75 12.75ZM229.5 140.25V270.3L349.35 341.7L369.75 308.55L267.75 247.35V140.25H229.5Z" fill="#9C9C9C"/>
</svg>
